X: 23852
T: Liverpool, The
R: reel
M: 4/4
K: Dmajor
FGAG FA ~A2|EFGF EG ~G2|FGAG FABd|cAGE ED D2|
FGAG FGAF|EA, ~A,2 A,CEG|FD (3EFG AdBd|cAGE ED D2:|
fedf a3f|eA (3AAA gfef|dcde f2 af|gbag fd d2|
fgag fgaf|eA (3AAA Aceg|fd ~d2 dfaf|bgeg fd d2:|

